src/assets/img/logo.svg

<svg width="42" height="51" viewBox="0 0 42 51" fill="none" xmlns="http://www.w3.org/2000/svg">
<path d="M19.4553 1.61894L0.629272 20.445C0.226785 20.8471 0.000427874 21.3925 1.43487e-10 21.9614V40.7772C-6.55593e-06 41.3445 0.224641 41.8887 0.624801 42.2908C1.02496 42.6928 1.56807 42.9201 2.13535 42.9228H18.6404C18.9226 42.9215 19.2022 42.976 19.4631 43.0834C19.7241 43.1907 19.9612 43.3487 20.1607 43.5482C20.3602 43.7477 20.5182 43.9848 20.6255 44.2458C20.7329 44.5067 20.7874 44.7863 20.7861 45.0685V49.7827C20.7618 49.9771 20.7907 50.1744 20.8697 50.3537C20.9487 50.533 21.0748 50.6875 21.2346 50.8007C21.3944 50.914 21.582 50.9818 21.7773 50.9969C21.9726 51.012 22.1684 50.9738 22.3438 50.8865L40.4993 42.9228C40.9178 42.7365 41.2758 42.4368 41.5328 42.0576C41.7898 41.6784 41.9356 41.2349 41.9538 40.7772V21.9614C41.9533 21.3925 41.727 20.8471 41.3245 20.445L22.4984 1.61894C22.3001 1.42026 22.0646 1.26263 21.8052 1.15509C21.5459 1.04754 21.268 0.992188 20.9872 0.992188C20.7065 0.992188 20.4285 1.04754 20.1692 1.15509C19.9099 1.26263 19.6743 1.42026 19.476 1.61894" fill="#D2232A"/>
<path fill-rule="evenodd" clip-rule="evenodd" d="M12.7403 24.6229C12.697 23.6616 12.9426 22.7094 13.4454 21.889C13.9482 21.0686 14.6852 20.4175 15.5614 20.0197C16.4376 19.622 17.4128 19.4957 18.3614 19.6572C19.31 19.8188 20.1885 20.2607 20.8837 20.926C21.5788 21.5913 22.0588 22.4496 22.2618 23.3902C22.4647 24.3308 22.3814 25.3107 22.0224 26.2035C21.6634 27.0962 21.0453 27.8611 20.2477 28.3994C19.4501 28.9377 18.5096 29.2248 17.5473 29.2237C16.9249 29.2561 16.3025 29.1608 15.7183 28.9437C15.1341 28.7267 14.6004 28.3924 14.1502 27.9615C13.6999 27.5305 13.3426 27.0121 13.1001 26.4379C12.8576 25.8638 12.7352 25.2461 12.7403 24.6229ZM20.6936 24.6229C20.6936 24.0109 20.5121 23.4125 20.1721 22.9036C19.832 22.3947 19.3487 21.998 18.7832 21.7638C18.2177 21.5296 17.5955 21.4683 16.9952 21.5877C16.3948 21.7071 15.8434 22.0018 15.4106 22.4346C14.9778 22.8674 14.6831 23.4189 14.5637 24.0192C14.4443 24.6195 14.5056 25.2417 14.7398 25.8072C14.974 26.3727 15.3707 26.856 15.8796 27.1961C16.3885 27.5361 16.9868 27.7176 17.5989 27.7176C18.4197 27.7176 19.2068 27.3916 19.7872 26.8112C20.3676 26.2308 20.6936 25.4437 20.6936 24.6229ZM10.3882 24.5198H11.9562V28.0683C10.9499 28.8264 9.71888 29.2258 8.45922 29.2031C7.83739 29.2325 7.21605 29.1355 6.63282 28.9179C6.04959 28.7002 5.5166 28.3664 5.06611 27.9368C4.61562 27.5071 4.25703 26.9906 4.012 26.4183C3.76698 25.846 3.64062 25.23 3.64062 24.6074C3.64062 23.9849 3.76698 23.3689 4.012 22.7966C4.25703 22.2243 4.61562 21.7077 5.06611 21.2781C5.5166 20.8484 6.04959 20.5147 6.63282 20.297C7.21605 20.0794 7.83739 19.9824 8.45922 20.0118C9.12719 19.9801 9.79408 20.0937 10.4139 20.3448C11.0336 20.5959 11.5915 20.9786 12.049 21.4663L11.0175 22.4979C10.7004 22.1646 10.3175 21.9008 9.89311 21.7232C9.46871 21.5456 9.01204 21.4582 8.55205 21.4663C7.71898 21.4663 6.92002 21.7973 6.33095 22.3863C5.74188 22.9754 5.41092 23.7744 5.41092 24.6074C5.41092 25.4405 5.74188 26.2395 6.33095 26.8285C6.92002 27.4176 7.71898 27.7486 8.55205 27.7486C9.1944 27.759 9.82802 27.5988 10.3882 27.2843V24.5198ZM23.8429 21.8901C23.3405 22.7103 23.0952 23.6621 23.1384 24.6229C23.1333 25.247 23.256 25.8656 23.4991 26.4405C23.7422 27.0153 24.1005 27.5343 24.5519 27.9654C25.0033 28.3965 25.5382 28.7305 26.1236 28.9469C26.709 29.1633 27.3326 29.2575 27.9559 29.2237C28.9177 29.2227 29.8572 28.9339 30.6534 28.3943C31.4496 27.8548 32.0661 27.0892 32.4235 26.1963C32.7809 25.3033 32.8628 24.3238 32.6587 23.3839C32.4545 22.444 31.9737 21.5867 31.2782 20.9224C30.5826 20.2581 29.7041 19.8173 28.7558 19.6566C27.8075 19.4959 26.8328 19.6227 25.9572 20.0208C25.0816 20.4188 24.3453 21.0699 23.8429 21.8901ZM30.5702 22.9036C30.9103 23.4125 31.0918 24.0108 31.0918 24.6229C31.0988 25.0312 31.0235 25.4368 30.8704 25.8154C30.7174 26.194 30.4897 26.538 30.201 26.8267C29.9122 27.1155 29.5682 27.3432 29.1896 27.4963C28.811 27.6493 28.4054 27.7246 27.9971 27.7176C27.385 27.7176 26.7867 27.5361 26.2777 27.1961C25.7688 26.856 25.3722 26.3727 25.1379 25.8072C24.9037 25.2417 24.8424 24.6195 24.9618 24.0192C25.0813 23.4189 25.376 22.8674 25.8088 22.4346C26.2416 22.0018 26.7931 21.7071 27.3934 21.5877C27.9937 21.4683 28.6159 21.5296 29.1814 21.7638C29.7469 21.998 30.2302 22.3947 30.5702 22.9036ZM11.9253 29.9974V38.941H10.2645V35.1036H5.64304V38.941H3.98221V29.9974H5.64304V33.6904H10.2645V29.9974H11.9253ZM15.2985 36.8676H19.7652L20.7039 38.9307H22.3957L18.3622 29.987H16.7324L12.7093 38.9307H14.4216L15.2985 36.8676ZM17.537 31.6582L19.2184 35.5678H15.8555L17.537 31.6582ZM22.3957 35.0417V29.9974H24.0565V34.9798C24.0565 36.816 24.8921 37.6103 26.3259 37.6103C27.7598 37.6103 28.5851 36.816 28.5851 34.9798V29.9974H30.2252V35.0417C30.2252 37.6516 28.7604 39.0648 26.3156 39.0648C23.8708 39.0648 22.3957 37.6516 22.3957 35.0417ZM31.3806 36.7026L30.8132 37.992V38.0333C31.8414 38.7527 33.0771 39.115 34.3309 39.0648C36.786 39.0648 37.9516 37.8373 37.9516 36.4034C37.9516 34.5402 36.2412 34.1346 34.7633 33.7842C33.6391 33.5176 32.6494 33.2829 32.6494 32.4628C32.6494 31.782 33.2065 31.2456 34.5888 31.2456C35.4573 31.2632 36.3065 31.5048 37.0542 31.947L37.5803 30.6576C36.6767 30.1291 35.6457 29.858 34.5991 29.8736C32.1542 29.8736 30.9989 31.1011 30.9989 32.535C30.9989 34.4201 32.7099 34.83 34.19 35.1846C35.3178 35.4549 36.3115 35.6929 36.3115 36.5272C36.3115 37.1874 35.7235 37.6826 34.3309 37.6826C33.2679 37.6804 32.2336 37.3368 31.3806 36.7026Z" fill="white"/>
</svg>

<svg xmlns="http://www.w3.org/2000/svg" width="42" height="51" fill="none"><path fill="#D2232A" d="M19.455 1.619.63 20.445A2.146 2.146 0 0 0 0 21.961v18.816a2.146 2.146 0 0 0 2.135 2.146H18.64a2.135 2.135 0 0 1 2.146 2.145v4.715a1.083 1.083 0 0 0 1.558 1.103l18.155-7.963a2.454 2.454 0 0 0 1.455-2.146V21.961c0-.569-.227-1.114-.63-1.516L22.498 1.619a2.134 2.134 0 0 0-3.022 0"/><path fill="#fff" fill-rule="evenodd" d="M12.74 24.623a4.817 4.817 0 1 1 4.807 4.6 4.569 4.569 0 0 1-4.807-4.6Zm7.954 0a3.095 3.095 0 1 0-6.19 0 3.095 3.095 0 0 0 6.19 0Zm-10.306-.103h1.568v3.548a5.643 5.643 0 0 1-3.497 1.135 4.603 4.603 0 0 1-4.818-4.596 4.6 4.6 0 0 1 4.818-4.595 4.622 4.622 0 0 1 3.59 1.454l-1.031 1.032a3.322 3.322 0 0 0-2.466-1.032 3.141 3.141 0 0 0 0 6.283 3.63 3.63 0 0 0 1.836-.465V24.52Zm13.455-2.63a4.818 4.818 0 0 0-.705 2.733 4.571 4.571 0 0 0 4.818 4.6 4.817 4.817 0 1 0-4.113-7.333Zm6.727 1.014c.34.509.522 1.107.522 1.719a3.042 3.042 0 0 1-3.095 3.095 3.095 3.095 0 1 1 2.573-4.814Zm-18.645 7.093v8.944h-1.66v-3.837H5.643v3.837h-1.66v-8.944h1.66v3.693h4.622v-3.693h1.66Zm3.373 6.87h4.467l.939 2.064h1.692l-4.034-8.944h-1.63l-4.023 8.944h1.713l.877-2.063Zm2.239-5.209 1.681 3.91h-3.363l1.682-3.91Zm4.859 3.384v-5.045h1.66v4.983c0 1.836.836 2.63 2.27 2.63 1.434 0 2.26-.794 2.26-2.63v-4.983h1.64v5.045c0 2.61-1.466 4.023-3.91 4.023-2.445 0-3.92-1.413-3.92-4.023Zm8.985 1.66-.568 1.29v.041a5.736 5.736 0 0 0 3.518 1.032c2.455 0 3.62-1.228 3.62-2.662 0-1.863-1.71-2.268-3.188-2.619-1.124-.266-2.114-.501-2.114-1.321 0-.681.557-1.217 1.94-1.217a5.037 5.037 0 0 1 2.465.701l.526-1.29a5.736 5.736 0 0 0-2.98-.783c-2.446 0-3.601 1.227-3.601 2.661 0 1.885 1.71 2.295 3.191 2.65 1.128.27 2.122.508 2.122 1.342 0 .66-.588 1.156-1.981 1.156a4.962 4.962 0 0 1-2.95-.98Z" clip-rule="evenodd"/></svg>
